rospo-icon-theme-classic-common/32x32/apps/foursquare.svg

<svg height="32" width="32" xmlns="http://www.w3.org/2000/svg"><rect height="28" opacity=".2" rx="1.4" transform="matrix(0 -1 -1 0 0 0)" width="28" x="-31" y="-30"/><rect fill="#fa4778" height="28" rx="1.4" transform="matrix(0 -1 -1 0 0 0)" width="28" x="-30" y="-30"/><path d="m3.4004 2c-.7756 0-1.4004.6248-1.4004 1.4004v1c0-.7756.6248-1.4004 1.4004-1.4004h25.2c.775 0 1.4.6248 1.4 1.4004v-1c0-.7756-.625-1.4004-1.4-1.4004z" fill="#fff" opacity=".2"/><path d="m10 9v16l5-6h4l1-5h-5 5l1-5z" fill="none" opacity=".2" stroke="#000" stroke-linejoin="round" stroke-width="2"/><path d="m10 8v16l5-6h4l1-5h-5 5l1-5z" fill="none" stroke="#fff" stroke-linejoin="round" stroke-width="2"/></svg>

<svg xmlns="http://www.w3.org/2000/svg" width="32" height="32" version="1">
 <rect style="opacity:0.2" width="28" height="28" x="-31" y="-30" rx="1.4" ry="1.4" transform="matrix(0,-1,-1,0,0,0)"/>
 <rect style="fill:#fa4778" width="28" height="28" x="-30" y="-30" rx="1.4" ry="1.4" transform="matrix(0,-1,-1,0,0,0)"/>
 <path style="opacity:0.2;fill:#ffffff" d="M 3.4004,2 C 2.6248,2 2,2.6248 2,3.4004 l 0,1 C 2,3.6248 2.6248,3 3.4004,3 l 25.2,0 c 0.775,0 1.4,0.6248 1.4,1.4004 l 0,-1 C 30.0004,2.6248 29.3754,2 28.6004,2 l -25.2,0 z"/>
 <path style="fill:none;stroke:#000000;stroke-width:2;stroke-linejoin:round;opacity:0.2" d="M 10,9 V 25 L 15,19 H 19 L 20,14 H 15 20 L 21,9 Z"/>
 <path style="fill:none;stroke:#ffffff;stroke-width:2;stroke-linejoin:round" d="M 10,8 V 24 L 15,18 H 19 L 20,13 H 15 20 L 21,8 Z"/>
</svg>
